!!!OTL: Zhuowang shan shang
!!!ARE: Asia, China,ˇJiangxi, Yihuang
!! IV, 234
!!!SCT: C1677
!!!YEM: Copyright 1995, estate of Helmut Schaffrath.
**kern
*ICvox
*Ivox
!! 2+3 metric grouping
*M5/8
*k[f#c#g#]
*A:
{8cc#
16cc#
16b
8cc#
4cc#
=1
8cc#
16cc#
16b
8a
4b}
=2
{8cc#
16b
16cc#
8b
4f#
=3
16b
16a
16b
16cc#
8a
8a
8r}
=4
{8a
16a
16f#
16a
16b
4cc#
=5
8cc#
16cc#
16b
8a
4b}
=6
{8cc#
16b
16cc#
16b
16a
4f#
=7
16b
16a
16b
16cc#
8a
4a}
==
!!!AGN: Shange. NannÅ qing
!!!AMT: simple quintuple
!!!AIN: vox
!!!EED: Helmut Schaffrath
!!!EEV: 1.0
*-
